!!!OTL: ES WOLLTE EIN MAEDCHEN DIE LAEMMLEIN HUETEN
!!!ARE: Europa, Mitteleuropa, Deutschland, Rheinland
!!!SCT: E0126
!!!YEM: Copyright 1995, estate of Helmut Schaffrath.
**kern
*ICvox
*Ivox
*M6/8
*k[b-]
*F:
{8c
=1
8f
8c
8f
8a
8f
8a
=2
8cc
8dd
8cc
8a
8f}
{16f
16a
=3
2cc
8g
8b-
=4
4a
4.r}
{8c
=5
8f
8c
8f
8a
8f
8a
=6
8cc
8dd
8cc
8a
8f}
{16f
16a
=7
2cc
8g
8b-
=8
4a
4.r}
{8a
=9
8a
8g
8g
8g
8f
8f
=10
8a
8b-
8a
4g}
{16g
16a
=11
8b-
8b-
8b-
8b-
8cc
8dd
=12
8dd
8cc
8cc
4a}
{16cc
16ff
=13
8ff
8cc
8cc
8cc
8b-
8a
=14
2b-
8g
8cc
=15
4a
4.r}
==
!!!AGN: erzaehlendes Volks - Lied, Schalk -, Schelmen - Lied, betrogene Liebe, Ballade ?
!!!ONB: ESAC (Essen Associative Code) Database: ERK1
!!!AMT: compound duple
!!!AIN: vox
!!!EED: Helmut Schaffrath
!!!EEV: 1.0
*-
